X:173
T: Elend hat mich umfangen
N: A0211
O: Europa, Mitteleuropa, Deutschland
N: Dresdner Cod. M. 53
R: Romanze, Ballade, Lied
M: 3/1
L: 1/4
K: A
A4 | A8A4 | A8B4 | =c8B3A | =G8
A4 | =c8B3A | A8G4 | A8
A4 | A8A4 | A8B4 | =c8B3A | =G8
A4 | =c8B3A | A8G4 | A8
=c4 | B8A4 | =G8=F4 | E8E4 | E8
=c4 | B8A4 | =G8=F4 | E8E4 | E8
E4 | A8A4 | A8B4 | =c8B3A | =G8
A4 | =c8B3A | A8G4 | A8

@@@ Tune index: 173
